X:1
M:2/4
K:D
A/2A/2|cA/2B/2c/2A/2 B/2A/2G/2G/2|A/2B/2A/2F/4 F/2F/2A/2|\
B/2A/2B/2c/2 d/2B/2B/2A/2|G/2F/2G/2A/2 B/2c/2A/2A/2|
F/2G/2A/2F/2 D/2E/2A/2A/2|cA/2A/2 B/2A/2G/2A/2|BG FG/2A/2|\
B/2A/2G/2B/2 G:|
K:G
d/2c/2|BB/2G/2 B/2G/2G/2B/2|d/2d/2e/2f/2 ed/2A/2|\
B/2A/2A/2F/2 A/2G/2F/2E/2|D/2D/2F/2D/2 E2|
B/2A/2G/2F/2 E/2F/2E/2D/2|G/2F/2G/2A/2 B/2G/2G/2B/2|\
A/2A/2G/2F/2 G/2D/2E/2G/2|
FG AG/2B/2|B/2A/2B/2c/2 AA/2G/2|F/2G/2A/2B/2 c/2d/2c/2A/2|
FA G:|